dist/assets/img/footer-vk.svg

<svg width="30" height="30" viewBox="0 0 30 30" fill="none" xmlns="http://www.w3.org/2000/svg">
<circle cx="15" cy="15" r="15" fill="#474F60"/>
<mask id="mask0" style="mask-type:alpha" maskUnits="userSpaceOnUse" x="4" y="4" width="22" height="22">
<path d="M22.4857 11.0586C22.5994 10.6911 22.4857 10.4111 21.9432 10.4111H20.1757C19.7207 10.4111 19.5194 10.6474 19.4057 10.9099C19.4057 10.9099 18.5044 13.1061 17.2269 14.5411C16.8069 14.9524 16.6232 15.0836 16.3957 15.0836C16.2819 15.0836 16.0982 14.9524 16.0982 14.5761V11.0586C16.0982 10.6124 15.9932 10.4111 15.6169 10.4111H12.8257C12.5457 10.4111 12.3794 10.6211 12.3794 10.8224C12.3794 11.2424 13.0357 11.3474 13.0794 12.5461V15.1536C13.0794 15.7311 12.9744 15.8361 12.7557 15.8361C12.1607 15.8361 10.6907 13.6224 9.82444 11.1024C9.64944 10.6124 9.48319 10.4111 9.02819 10.4111H7.25194C6.75319 10.4111 6.64819 10.6474 6.64819 10.9099C6.64819 11.3824 7.25194 13.7099 9.44819 16.7899C10.9094 18.8986 12.9744 20.0361 14.8557 20.0361C15.9844 20.0361 16.1244 19.7824 16.1244 19.3449V17.7524C16.1244 17.2536 16.2294 17.1486 16.5882 17.1486C16.8507 17.1486 17.2969 17.2799 18.3469 18.2861C19.5544 19.4936 19.7469 20.0361 20.4294 20.0361H22.1969C22.7044 20.0361 22.9582 19.7824 22.8182 19.2836C22.6607 18.7849 22.0832 18.0586 21.3219 17.2011C20.9107 16.7199 20.2894 16.1949 20.0969 15.9236C19.8344 15.5911 19.9132 15.4424 20.0969 15.1361C20.0969 15.1361 22.2582 12.0999 22.4857 11.0586Z" fill="#262B37"/>
</mask>
<g mask="url(#mask0)">
<rect width="30" height="30" fill="#262B37"/>
</g>
</svg>

<svg width="30" height="30" viewBox="0 0 30 30" fill="none" xmlns="http://www.w3.org/2000/svg"><circle cx="15" cy="15" r="15" fill="#474F60"/><mask id="mask0" style="mask-type:alpha" maskUnits="userSpaceOnUse" x="4" y="4" width="22" height="22"><path d="M22.486 11.059c.113-.368 0-.648-.543-.648h-1.767c-.455 0-.657.236-.77.499 0 0-.902 2.196-2.18 3.631-.42.411-.603.543-.83.543-.114 0-.298-.132-.298-.508V11.06c0-.447-.105-.648-.481-.648h-2.791c-.28 0-.447.21-.447.411 0 .42.657.525.7 1.724v2.608c0 .577-.105.682-.323.682-.595 0-2.065-2.214-2.932-4.734-.175-.49-.34-.69-.796-.69H7.252c-.499 0-.604.235-.604.498 0 .472.604 2.8 2.8 5.88 1.461 2.109 3.526 3.246 5.408 3.246 1.128 0 1.268-.254 1.268-.691v-1.593c0-.498.105-.603.464-.603.263 0 .709.13 1.759 1.137 1.207 1.208 1.4 1.75 2.082 1.75h1.768c.507 0 .761-.254.621-.752-.157-.5-.735-1.225-1.496-2.083-.411-.481-1.033-1.006-1.225-1.277-.263-.333-.184-.482 0-.788 0 0 2.161-3.036 2.389-4.077z" fill="#262B37"/></mask><g mask="url(#mask0)"><path fill="#262B37" d="M0 0h30v30H0z"/></g></svg>
